X: 3267
M: 6/8
L: 1/8
K: G
g |\
cAc BGB | ABA ABd | g2G GAG | GAG G2 :|
|: f |\
gag gdB | Aaa a2g | def gdB | gag gdB |\
cac BgB | aAA ABd | g2G GAG | GAG G2 :|


